raws/icons/decors/small-basket-icon.svg

<svg width="25" height="24" viewBox="0 0 25 24" fill="none" xmlns="http://www.w3.org/2000/svg">
<g clip-path="url(#clip0_2123_1897)">
<path d="M14.1665 18.0001C14.4318 18.0001 14.6861 17.8948 14.8736 17.7073C15.0612 17.5197 15.1665 17.2654 15.1665 17.0001V15.0001C15.1665 14.7349 15.0612 14.4806 14.8736 14.293C14.6861 14.1055 14.4318 14.0001 14.1665 14.0001C13.9013 14.0001 13.647 14.1055 13.4594 14.293C13.2719 14.4806 13.1665 14.7349 13.1665 15.0001V17.0001C13.1665 17.2654 13.2719 17.5197 13.4594 17.7073C13.647 17.8948 13.9013 18.0001 14.1665 18.0001ZM10.1665 18.0001C10.4318 18.0001 10.6861 17.8948 10.8736 17.7073C11.0612 17.5197 11.1665 17.2654 11.1665 17.0001V15.0001C11.1665 14.7349 11.0612 14.4806 10.8736 14.293C10.6861 14.1055 10.4318 14.0001 10.1665 14.0001C9.90132 14.0001 9.64697 14.1055 9.45943 14.293C9.2719 14.4806 9.16654 14.7349 9.16654 15.0001V17.0001C9.16654 17.2654 9.2719 17.5197 9.45943 17.7073C9.64697 17.8948 9.90132 18.0001 10.1665 18.0001ZM19.1665 6.00015H17.7865L16.0565 2.55015C16.0037 2.4232 15.9252 2.30852 15.826 2.21328C15.7268 2.11803 15.6091 2.04427 15.4801 1.99659C15.3511 1.94892 15.2137 1.92836 15.0764 1.9362C14.9391 1.94404 14.8049 1.98011 14.6822 2.04216C14.5594 2.10421 14.4508 2.1909 14.3631 2.29682C14.2754 2.40274 14.2105 2.5256 14.1725 2.65774C14.1344 2.78988 14.124 2.92845 14.1419 3.0648C14.1598 3.20114 14.2056 3.33232 14.2765 3.45015L15.5465 6.00015H8.78654L10.0565 3.45015C10.1536 3.21706 10.1589 2.95587 10.0714 2.71904C9.98382 2.4822 9.80993 2.28725 9.5846 2.17331C9.35927 2.05938 9.09918 2.03491 8.85656 2.10481C8.61393 2.17471 8.40672 2.3338 8.27654 2.55015L6.54654 6.00015H5.16654C4.45973 6.0109 3.77942 6.2709 3.24559 6.73428C2.71176 7.19767 2.35871 7.83468 2.24871 8.53296C2.13871 9.23124 2.27882 9.94594 2.64433 10.551C3.00984 11.1561 3.57727 11.6126 4.24654 11.8401L4.98654 19.3001C5.06116 20.0427 5.40988 20.7308 5.96461 21.2301C6.51934 21.7293 7.24024 22.0039 7.98654 22.0001H16.3665C17.1128 22.0039 17.8337 21.7293 18.3885 21.2301C18.9432 20.7308 19.2919 20.0427 19.3665 19.3001L20.1065 11.8401C20.7773 11.6119 21.3456 11.1537 21.7108 10.5466C22.0761 9.93955 22.2147 9.22278 22.1021 8.52329C21.9895 7.8238 21.633 7.18674 21.0957 6.72492C20.5584 6.26311 19.875 6.00636 19.1665 6.00015ZM17.3565 19.1001C17.3317 19.3477 17.2154 19.577 17.0305 19.7435C16.8456 19.9099 16.6053 20.0014 16.3565 20.0001H7.97654C7.72777 20.0014 7.48747 19.9099 7.30256 19.7435C7.11766 19.577 7.00141 19.3477 6.97654 19.1001L6.26654 12.0001H18.0665L17.3565 19.1001ZM19.1665 10.0001H5.16654C4.90132 10.0001 4.64697 9.89479 4.45943 9.70726C4.2719 9.51972 4.16654 9.26537 4.16654 9.00015C4.16654 8.73493 4.2719 8.48058 4.45943 8.29304C4.64697 8.10551 4.90132 8.00015 5.16654 8.00015H19.1665C19.4318 8.00015 19.6861 8.10551 19.8736 8.29304C20.0612 8.48058 20.1665 8.73493 20.1665 9.00015C20.1665 9.26537 20.0612 9.51972 19.8736 9.70726C19.6861 9.89479 19.4318 10.0001 19.1665 10.0001Z" fill="white"/>
</g>
<defs>
<clipPath id="clip0_2123_1897">
<rect width="24" height="24" fill="white" transform="translate(0.166504)"/>
</clipPath>
</defs>
</svg>

<svg width="25" height="24" fill="none" xmlns="http://www.w3.org/2000/svg"><g clip-path="url(#clip0_2123_1897)"><path d="M14.166 18a1 1 0 001-1v-2a1 1 0 10-2 0v2a1 1 0 001 1zm-4 0a1 1 0 001-1v-2a1 1 0 10-2 0v2a1 1 0 001 1zm9-12h-1.38l-1.73-3.45a.999.999 0 00-1.914.515 1 1 0 00.135.385L15.546 6h-6.76l1.27-2.55a1 1 0 00-1.78-.9L6.547 6h-1.38a3 3 0 00-.92 5.84l.74 7.46a3 3 0 003 2.7h8.38a3 3 0 003-2.7l.74-7.46a3 3 0 00-.94-5.84zm-1.81 13.1a1 1 0 01-1 .9h-8.38a1 1 0 01-1-.9l-.71-7.1h11.8l-.71 7.1zm1.81-9.1h-14a1 1 0 110-2h14a1 1 0 110 2z" fill="#fff"/></g><defs><clipPath id="clip0_2123_1897"><path fill="#fff" transform="translate(.167)" d="M0 0h24v24H0z"/></clipPath></defs></svg>
